X:1
T:O mort amer
T:Noé Faignient
T:Source :  La fleur des chansons à 3---Louvain---P.Phalèse---1574. Editor : André Vierendeels (22/08/18) Notes : Original clefs C1, C3, C4 Original note values have been halved Editorial accidentals above the staff 
T:O mort amer
T:©
T:©
T:©
T:©
C:Noé Faignient
Z:©
%%score [ 1 2 3 ]
L:1/8
Q:1/4=120
M:2/2
K:C
V:1 treble nm="Soprano" snm="S"
V:2 treble nm="Alto" snm="A"
V:3 treble-8 nm="Tenor" snm="T"
V:1
 z4 E4 | E4 c4 | c2 A4 F2 | D2 D2 _B4 | A8 | E4 G3 A | B4 A2 A2- | A2 c4 G2 | A4 B4- | B4 A4- | %10
w: O|mort, a-|mer est ta|sou- ve- nan-|ce,|à l'hom- me|ri- che qui|_ i- cy|pre- sent,|_ a|
 A4 G4- | G2 ^F2 G4 | DEFG A2 EF | GA B4 A2- | AA ^G2 A4 | z8 | z2 A2 B2 ^c2 | d2 A2 F2 D2 | %18
w: _ mis|_ son re-|pos _ _ _ _ et _|_ _ _ sa|_ fi- an- ce||en sa ri-|ches- se, biens, or|
 G2 E2 D2 A2- | A2 E2 G3 F/E/ | DE F4 E2- | E2 D2 E4 | c4 G2 _B2- | BA/G/FG A2 G2- | G2 F2 G2 A2 | %25
w: ou ar- gent, mais|_ à l'hom- * *|* * me pou-|* * vre,|mais à l'hom-|* * * * * me pou-|* * vre, et|
 G2 F2 E4 | G4 G4 | A4 G2 F2 | E2 A4 G2 | A8 | z4 z2 d2 | c2 A2 A2 B2 | c2 c4 G2 | c4 B4- | B4 A4 | %35
w: in di- gent,|doux est|ton nom et|ta me- moi-|re,|car|par toy, du mal|de- li- vré|pre- tent,|_ pre-|
 G4 A2 G2- | G2 F2 E2 EG | G2 F2 E4 | D4 A4 | G2 F2 E2 EG | G2 F2 E4 | ^F8 |] %42
w: tent de ve-|* nir à l'e- ter-|nel- le gloi-|re, de|ve- nir à l'e- ter-|nel- le gloi-|re.|
V:2
 z8 | A,4 A,4 | F4 F2 D2- | D2 F2 FF E2 | F4 z2 A,2 | C3 D E2 D2- | D2 D2 F4- | F2 E2 E4 | C4 E4- | %9
w: |O mort,|a- mer est|_ ta sou- ve- nan-|ce, à|l'hom- me ri- che|_ qui i-|* cy pre-|sent, a|
 E2 B,2 C2 D2 | C4 E4 | D2 D2 E2 D2 |"^-natural" z2 D2 CB,CA, | B,C D4 A,2 | CB,/A,/ B,2 A,4 | %15
w: _ mis son re-|pos, a|mis son re- pos,|et sa _ _ _|_ _ _ fi-|an- * * * ce|
 D2 E2 F2 EC- | C A,2 D2 D E2 | F F2 D2 DFF | ED^CC D2 A,2 | C4 B,3 A, | B,C D2 D2 C2 | %21
w: en sa ri- ches- se,|_ biens, or ou ar-|gent, en sa ri- ches- se,|biens, or ou ar- gent, mais|à l'hom- *|* * * me pou-|
 C2 A,2 A,2 ^G,2 | A,2 E4 D2 | DCDE F2 D2 | C4 D2 F2 | E2 D2 ^C4 | E4 D4 | F4 E2 A2 | G2 F3 E D2- | %29
w: vre et in di-|gent, mais à|l'hom- * * * * me|pou- vre, et|in di- gent,|doux est|ton nom et|ta me- * moi-|
 D2 ^C2 D2 F2 | G2 A2 F2 F2 | E2 F4 D2 | z2 A2 G2 E2 | E2 F2 G2 E2 | D4 F4 | E4 F2 D2- | %36
w: * * re, car|par toy, du mal|de- li- vré,|car par toy,|du mal de- li-|vré, pre-|tent de ve-|
 D2 D2 ^C2 CD | E2 D4 ^C2 | D4 F4 | D2 D2 ^C2 CD | E2 D4 ^C2 | D8 |] %42
w: * nir à l'e- ter-|nel- le gloi-|re, de|ve- nir à l'e- ternel-|le gloi- *|re.|
V:3
 E4 E4 | c4 c2 A2 | F4 D2 D2 | _B3 A G4 | F2 D2 F3 G | A4 G4- | G2 G2 D2 D2 | A3 B c3 B | %8
w: O mort,|a- mer est|ta sou- ve-|nan- * *|ce, à l'hom- me|ri- che|_ qui i- cy|pre- * * *|
 AG A2 E4 | z2 G2 F2 D2 | F4 E4 | z2 d2 c2 G2 | _B4 A2 A2 | G2 D2 F4 | E4 z2 A2 | B2 ^c2 d2 A2 | %16
w: * * * sent,|a mis son|re- pos,|a mis son|re- pos, et|sa fi- an-|ce en|sa ri- ches- se,|
 F2 D2 G2 E2 | D4 _B2 B2 | G2 A2 D4 | A4 E2 G2- | GF/E/ D4 E2 | F4 E4 | z2 c4 G2 | _B3 A/G/ F2 G2 | %24
w: biens, or ou ar-|gent, biens, or|ou ar- gent,|mais à l'hom-|* * * * me|pou- vre,|mais à|l'hom- * * * me|
 A4 G2 F2 | C2 D2 A4 | E4 G4 | F4 c2 F2 | c2 A2 _B4 | A4 z2 d2 | c2 A2 A2 B2 | c2 d4 G2 | %32
w: pou- vre, et|in- di- gent,|doux est|ton nom et|ta me- moi-|re, car|par toy, du mal|de- li- vré,|
 A3 B cdcB | AG A2 G4- | G4 F4 | c4 F2 G2- | G2 D2 A2 AB | c2 d2 A4 | D4 z2 D2 | G2 D2 A2 AB | %40
w: pre- * * * * *|* * * tent,|_ pre-|tent de ve-|* nir à l'e- ter-|nel- le gloi-|re, de|ve- nir à l'e- ter-|
 c2 d2 A4 | D8 |] %42
w: nel- le gloi-|re.|

